flaticon/transportation/bus-3.svg

<svg xmlns="http://www.w3.org/2000/svg" width="32" height="32" viewBox="0 0 24 24">
    <path d="M6.25 14.667969L17.75 14.667969 17.75 4.804688 6.25 4.804688zM7.273438 5.824219L16.726562 5.824219 16.726562 13.648438 7.273438 13.648438zM7.578125 2.429688L16.421875 2.429688 16.421875 3.453125 7.578125 3.453125zM7.390625 16.3125L9.273438 16.3125 9.273438 17.332031 7.390625 17.332031zM14.726562 16.3125L16.609375 16.3125 16.609375 17.332031 14.726562 17.332031zM14.726562 16.3125"/>
    <path d="M 22.0625 3.84375 L 20.234375 3.84375 L 20.234375 2.417969 C 20.234375 1.085938 19.332031 0 18.226562 0 L 5.773438 0 C 4.667969 0 3.765625 1.085938 3.765625 2.417969 L 3.765625 3.84375 L 1.9375 3.84375 C 0.871094 3.84375 0 4.890625 0 6.175781 L 0 9.035156 C 0 10.070312 0.628906 10.925781 1.460938 11.027344 C 2.429688 11.144531 3.265625 10.234375 3.265625 9.097656 L 3.265625 7.113281 L 3.765625 7.113281 L 3.765625 21.648438 C 3.765625 22.945312 4.703125 24 5.71875 24 C 6.890625 24 7.800781 23.066406 7.800781 21.648438 L 7.800781 20.320312 L 16.328125 20.320312 L 16.328125 21.574219 C 16.328125 22.890625 17.15625 23.957031 18.214844 24 C 18.222656 24 18.273438 24 18.28125 24 C 19.355469 24 20.234375 22.945312 20.234375 21.648438 L 20.234375 7.113281 L 20.734375 7.113281 L 20.734375 9.035156 C 20.734375 10.070312 21.375 10.941406 22.195312 11.027344 C 22.714844 11.082031 23.257812 10.8125 23.5625 10.425781 C 23.84375 10.0625 24 9.59375 24 9.097656 L 24 6.175781 C 24 4.890625 23.128906 3.84375 22.0625 3.84375 Z M 22.980469 9.097656 C 22.980469 9.785156 22.558594 10.015625 22.328125 10.015625 C 22.324219 10.015625 22.320312 10.015625 22.320312 10.015625 C 22.046875 9.980469 21.757812 9.582031 21.757812 9.035156 L 21.757812 6.601562 C 21.757812 6.320312 21.527344 6.089844 21.246094 6.089844 L 19.722656 6.089844 C 19.441406 6.089844 19.210938 6.320312 19.210938 6.601562 L 19.210938 21.648438 C 19.210938 22.371094 18.777344 22.964844 18.328125 22.972656 C 17.703125 22.980469 17.347656 22.199219 17.347656 21.574219 L 17.347656 19.808594 C 17.347656 19.527344 17.121094 19.300781 16.839844 19.300781 L 7.289062 19.300781 C 7.007812 19.300781 6.777344 19.527344 6.777344 19.808594 L 6.777344 21.648438 C 6.777344 22.371094 6.320312 23.027344 5.71875 22.980469 C 5.214844 22.9375 4.789062 22.371094 4.789062 21.648438 L 4.789062 6.601562 C 4.789062 6.320312 4.558594 6.089844 4.277344 6.089844 L 2.753906 6.089844 C 2.472656 6.089844 2.242188 6.320312 2.242188 6.601562 L 2.242188 9.097656 C 2.242188 9.585938 1.960938 10.015625 1.585938 10.015625 C 1.585938 10.015625 1.585938 10.015625 1.582031 10.015625 C 1.3125 9.980469 1.019531 9.582031 1.019531 9.035156 L 1.019531 6.175781 C 1.019531 5.464844 1.441406 4.863281 1.9375 4.863281 L 4.277344 4.863281 C 4.558594 4.863281 4.789062 4.636719 4.789062 4.355469 L 4.789062 2.417969 C 4.789062 1.660156 5.238281 1.019531 5.773438 1.019531 L 18.226562 1.019531 C 18.761719 1.019531 19.210938 1.660156 19.210938 2.417969 L 19.210938 4.355469 C 19.210938 4.636719 19.441406 4.863281 19.722656 4.863281 L 22.0625 4.863281 C 22.558594 4.863281 22.980469 5.464844 22.980469 6.175781 Z M 22.980469 9.097656"/>
</svg>

<svg xmlns="http://www.w3.org/2000/svg" width="32" height="32" viewBox="0 0 24 24">
    <path d="M6.25 14.668h11.5V4.805H6.25zm1.023-8.844h9.454v7.824H7.273zm0 0M7.578 2.43h8.844v1.023H7.578zm0 0M7.39 16.313h1.883v1.019H7.391zm0 0M14.727 16.313h1.882v1.019h-1.882zm0 0"/>
    <path d="M22.063 3.844h-1.829V2.418c0-1.332-.902-2.418-2.007-2.418H5.773C4.668 0 3.766 1.086 3.766 2.418v1.426H1.937C.871 3.844 0 4.89 0 6.176v2.86c0 1.034.629 1.89 1.46 1.991.97.118 1.806-.793 1.806-1.93V7.114h.5v14.535c0 1.297.937 2.352 1.953 2.352C6.89 24 7.8 23.066 7.8 21.648V20.32h8.527v1.254c0 1.317.828 2.383 1.887 2.426h.066c1.074 0 1.953-1.055 1.953-2.352V7.113h.5v1.922c0 1.035.641 1.906 1.461 1.992.52.055 1.063-.214 1.367-.601.282-.364.438-.832.438-1.328V6.176c0-1.285-.871-2.332-1.938-2.332zm.917 5.254c0 .687-.421.918-.652.918h-.008c-.273-.036-.562-.434-.562-.98V6.601a.513.513 0 0 0-.512-.512h-1.523a.513.513 0 0 0-.512.512v15.046c0 .723-.434 1.317-.883 1.325-.625.007-.98-.774-.98-1.399V19.81a.507.507 0 0 0-.508-.508H7.29a.51.51 0 0 0-.513.508v1.84c0 .722-.457 1.378-1.058 1.331-.504-.043-.93-.609-.93-1.332V6.602a.513.513 0 0 0-.512-.512H2.754a.513.513 0 0 0-.512.512v2.496c0 .488-.281.918-.656.918h-.004c-.27-.036-.562-.434-.562-.98v-2.86c0-.711.421-1.313.917-1.313h2.34a.51.51 0 0 0 .512-.508V2.418c0-.758.45-1.398.984-1.398h12.454c.535 0 .984.64.984 1.398v1.937c0 .282.23.508.512.508h2.34c.496 0 .917.602.917 1.313zm0 0"/>
</svg>
